packages/icons/src/assets/online-store.svg

<svg width="16" height="16" viewBox="0 0 16 16" xmlns="http://www.w3.org/2000/svg">
<path d="M15.5005 4.8252C15.5004 5.37387 15.3453 5.88527 15.0806 6.32324V13.877C15.0806 14.2212 14.8006 14.4999 14.4556 14.5H1.54639C1.20121 14.5 0.921387 14.2213 0.921387 13.877V6.32617C0.655578 5.88755 0.499579 5.37511 0.499512 4.8252V2.15527C0.499513 2.15201 0.500437 2.14876 0.500488 2.14551V1.5H15.5005V4.8252ZM10.2915 6.62012C9.75752 7.29736 8.93121 7.73423 8.00049 7.73438C7.06956 7.73437 6.24254 7.29751 5.7085 6.62012C5.17448 7.29763 4.34749 7.73431 3.4165 7.73438C2.97059 7.73437 2.54932 7.63158 2.17139 7.45312V13.2539H5.37549V11.2412C5.37549 9.79513 6.55086 8.62221 8.00049 8.62207C9.45024 8.62207 10.6255 9.79505 10.6255 11.2412V13.2539H13.8306V7.45215C13.4521 7.63117 13.0302 7.73438 12.5835 7.73438C11.6525 7.73428 10.8255 7.29764 10.2915 6.62012ZM8.00049 9.86914C7.24122 9.86928 6.62549 10.4838 6.62549 11.2412V13.2539H9.37549V11.2412C9.37549 10.4837 8.75988 9.86914 8.00049 9.86914ZM1.74951 4.8252C1.74971 5.74333 2.49605 6.48729 3.4165 6.4873C4.33687 6.48719 5.0833 5.74327 5.0835 4.8252V2.74707H1.74951V4.8252ZM6.3335 4.8252C6.33369 5.74333 7.08004 6.48729 8.00049 6.4873C8.92074 6.48706 9.66631 5.74319 9.6665 4.8252V2.74707H6.3335V4.8252ZM10.9165 4.8252C10.9167 5.74324 11.6632 6.48715 12.5835 6.4873C13.504 6.4873 14.2503 5.74334 14.2505 4.8252V2.74707H10.9165V4.8252Z" fill="currentColor"/>
</svg>

<svg xmlns="http://www.w3.org/2000/svg" width="16" height="16" viewBox="0 0 16 16"><path d="M15.5 4.825c0 .549-.155 1.06-.42 1.498v7.554c0 .344-.28.623-.624.623H1.546a.624.624 0 0 1-.625-.623v-7.55A2.9 2.9 0 0 1 .5 4.824V1.5h15zM10.292 6.62a2.91 2.91 0 0 1-4.583 0 2.91 2.91 0 0 1-3.537.833v5.8h3.204v-2.012A2.623 2.623 0 0 1 8 8.622a2.62 2.62 0 0 1 2.626 2.62v2.012h3.205V7.452a2.91 2.91 0 0 1-3.54-.832m-2.29 3.25c-.76 0-1.376.614-1.376 1.371v2.013h2.75V11.24c0-.757-.615-1.372-1.375-1.372M1.75 4.824c0 .918.746 1.662 1.667 1.662.92 0 1.666-.744 1.667-1.662V2.747H1.75zm4.584 0c0 .918.746 1.662 1.666 1.662s1.666-.744 1.666-1.662V2.747H6.333zm4.583 0c0 .918.746 1.662 1.667 1.662.92 0 1.666-.744 1.667-1.662V2.747h-3.335z"/></svg>
